X:1
T:Thanksgiving (Statham), LM
T:Francis Reginald Statham (1844-?)
T:Thanksgiving (Statham), LM
T:Public Domain
C:Francis Reginald Statham (1844-?)
Z:Public Domain
%%score ( 1 2 ) ( 3 4 )
L:1/8
M:3/4
K:D
V:1 treble 
V:2 treble 
V:3 bass 
V:4 bass 
V:1
 [FA]2 [FA]2 [EA]2 | [Dd]4 [DG]2 | [DF]4 [CE]2 | [DA]4 [CA]2 | (D2 F2) [EB]2 | %5
 ([Ee]2 [CA]2) [^DB]2 | [Ec]4 [DB]2 | [CA]6 | [DF]2 [EF]2 [DB]2 | ([FB]2 [E^A]2) [DB]2 | %10
 [Fd]4 [Ec]2 | [DB]4 [GA]2 | (d2 F2) [DG]2 | [DA]4 D2 | (D2 B,2) [CE]2 | D6 |] %16
V:2
 x6 | x6 | x6 | x6 | d4 x2 | x6 | x6 | x6 | x6 | x6 | x6 | x6 | F4 x2 | x4 D2 | F4 x2 | D6 |] %16
V:3
 [D,A,]2 [D,A,]2 [C,A,]2 | (A,2 G,2) [B,,G,]2 | [A,,A,]4 [G,A,]2 | [F,A,]4 [E,G,]2 | %4
 (F,2 A,2) [D,^G,]2 | (C,2 F,2) [F,A,]2 | (A,2 F,2) [E,^G,]2 | [A,,A,]6 | %8
 [D,A,]2 [C,^A,]2 [B,,B,]2 | [F,C]4 [G,B,]2 | [F,B,]4 [F,^A,]2 | [B,,B,]4 [C,E]2 | %12
 [D,A,]4 [B,,B,]2 | [F,,=C]4 [G,,B,]2 | [A,,A,]4 [A,,G,]2 | [D,F,]6 |] %16
V:4
 x6 | B,,4 x2 | x6 | x6 | D,4 x2 | A,4 x2 | E,4 x2 | x6 | x6 | x6 | x6 | x6 | x6 | x6 | x6 | x6 |] %16

